X: 111
T: Dance Basse
%O: 1795
%R: reel
Z: 2018 John Chambers <jc:trillian.mit.edu>
B: Wm. Campbell "10th Book of New and Favorite Country Dances, Strathey Reels" 1795 p.11
F: https://archive.org/details/campbellstenthbo00camp
M: 2/4
L: 1/16
K: G
%%slurgraces yes
%%graceslurs yes
% - - - - - - - - - - - - - - - - - - - - - - - - -
% Voice 1 arranged for small-scale proofreading
V: 1 staves=2
|:\
GABc d2d2 | d2g2d2B2 | GABc d2d2 |\
[1 d2g2 d4 :|[2 dgfe d4 |:\
c2cB A2AG | FGAB c4 | c2cB A2AG |[1 FGAB G4 :|
[2 FGAF G4 :|\
A2z2 d2z2 | {c}B2AB G2G2 | A2A2 d2d2 | {c}B2AB G2G2 |\
AFAF dAdA | {c}B2AB G2G2 | AFAF dAdA | {c}B2AB G4 |]
% - - - - - - - - - - - - - - - - - - - - - - - - -
% Voice 1 preserves the original staff layout
V: 2 clef=bass middle=d
|:\
g2g2 fafd | g2g2g2g2 | g2g2 fafd |[1 g2d2 G4 :|[2 g2g2 g4 |: d2d2d2d2 |
d2d2 fgaf | d2d2d2d2 |[1 d2d2 g2G2 :|[2 d2d2 g2G2 |] f2d2f2d2 | g2G2 B2G2 |
f2d2f2d2 | g2d2G4 | f2d2f2d2 | g2G2 B2G2 | f2d2 f2d2 | g2d2 G4 |]
% - - - - - - - - - - - - - - - - - - - - - - - - -
%%begintext align
%% 1st Cu set to 2d Lady hands 3 round
%% the same with the 2d Gent Lead down
%% the middle up again Allemande and
%% swing Corners.
%%endtext
% - - - - - - - - - - - - - - - - - - - - - - - - -

%%sep 1 1 500
%%sep 1 1 500

